X:1
T:Te ofrecemos, Padre eterno
T:Te ofrecemos, Padre eterno
T:Ofertorio
T:Canto popular, Autor Anonimo
T:Daniel Ibarra
T:Kerigma NMA
C:Canto popular, Autor Anonimo
Z:Daniel Ibarra
Z:Kerigma NMA
L:1/8
Q:1/4=80
M:3/4
K:F
V:1 treble nm="Mujeres" snm="V."
V:1
|: z4 AA |"Dm" A2 A2 GF |[M:2/4]"C" ED EF |[M:3/4]"Dm" D4 AA |"C" c2 c2 BA |[M:2/4]"Gm" GA Bd | %6
w: Teo fre|ce mos, Pa dree|ter no gran Se|ñor las o|fren das quehoy po|ne mos en tual|
w: ||||||
w: ||||||
[M:3/4]"Dm" A4 GG |[M:2/4]"Gm" BB FF |[M:3/4]"Dm" A2 A2 F2 |[M:2/4]"A7" EF GA |"Dm" D2 D2 :| %11
w: tar y con|e llas nues tra|vi da y|to do lo que|so mos|
w: |||||
w: |||||
 z2 DE |"Dm" F2 FF |"C" G2 GG |"F" A2 A2- | A2 AA |"Gm" B2 BB |"A7" G2 GE |"Dm" A2 A2- | A2 DE | %20
w: Por los|Cam pos dis|per soen es|pi gas|* he cho|pan teo fre|ce mos sus|gra nos|* co mo|
w: Es te|pan me mo|rial de su|muer te|* teo fre|ce mos Se|ñor, y o|ra mos|* Sé pro|
w: De su|san grees fi|gu raes te|ca liz|* por la|Nue va A|lian za, ver|ti da|* pa ra|
"Gm" F2 FF |"A7" E2 EE |"Dm" D4 |] %23
w: sig no deu|nion y de|fe|
w: pi cioa tu|pue blo, Se|ñor|
w: dar del pe|ca doel per|don|

